X:1
T:Burgate, CM
T:Burgate, CM
T:Mary Ann Sidebotham (1833-1913)
T:Public Domain Courtesy of the Cyber Hymnal™
C:Mary Ann Sidebotham (1833-1913)
Z:Public Domain
Z:Courtesy of the Cyber Hymnal™
%%score ( 1 2 ) ( 3 4 )
L:1/8
Q:1/4=107
M:4/4
K:D
V:1 treble 
V:2 treble 
V:3 bass 
V:4 bass 
V:1
 D2 | [DF]2 [EA]2 [Dd]2 [DF]2 | [DB]2 (AG) [DF]2 [DF]2 | (GA) [DB]2 [DA]2 [Dd]2 | %4
 ([DF]2 [CE]2) z2 [CE]2 | [EA]2 (AG) [DF]2 [EA]2 | [Dd]2 (cB) [Ec]2 [CA]2 | %7
 [Dd]2 ([FA][EG]) [DF]2 [CE]2 | D6 |] %9
V:2
 D2 | x8 | x2 C2 x4 | D2 x6 | x8 | x2 C2 x4 | x2 E2 x4 | x8 | D6 |] %9
V:3
 [D,F,]2 | [D,A,]2 [C,A,]2 [B,,B,]2 [D,A,]2 | (G,F,) [A,,E,]2 D,2 [D,A,]2 | %3
 [B,,G,]2 [G,,G,]2 [D,F,]2 (F,A,) | [A,,A,]4 z2 A,2 | [C,A,]2 [A,,A,]2 [D,A,]2 [C,E,]2 | %6
 [B,,F,]2 [E,^G,]2 [A,,A,]2 (A,=G,) | [F,A,]2 [G,B,]2 A,2 (A,G,) | [D,F,]6 |] %9
V:4
 x2 | x8 | G,,2 x D,2 x3 | x6 D,2 | x6 A,2 | x8 | x8 | x4 A,2 A,,2 | x6 |] %9

